font/glyphs/faa+yaa.isol.svg

<?xml version="1.0" encoding="UTF-8" standalone="no"?>
<!-- Created with Inkscape (http://www.inkscape.org/) -->

<svg
   xmlns:dc="http://purl.org/dc/elements/1.1/"
   xmlns:cc="http://creativecommons.org/ns#"
   xmlns:rdf="http://www.w3.org/1999/02/22-rdf-syntax-ns#"
   xmlns:svg="http://www.w3.org/2000/svg"
   xmlns="http://www.w3.org/2000/svg"
   xmlns:sodipodi="http://sodipodi.sourceforge.net/DTD/sodipodi-0.dtd"
   xmlns:inkscape="http://www.inkscape.org/namespaces/inkscape"
   version="1.0"
   width="1000"
   height="1000"
   id="svg5496"
   sodipodi:version="0.32"
   inkscape:version="0.47pre4 r22446"
   sodipodi:docname="faa+yaa.isol.svg"
   inkscape:output_extension="org.inkscape.output.svg.inkscape">
  <metadata
     id="metadata5594">
    <rdf:RDF>
      <cc:Work
         rdf:about="">
        <dc:format>image/svg+xml</dc:format>
        <dc:type
           rdf:resource="http://purl.org/dc/dcmitype/StillImage" />
      </cc:Work>
    </rdf:RDF>
  </metadata>
  <sodipodi:namedview
     inkscape:pageshadow="2"
     inkscape:pageopacity="0.0"
     guidetolerance="10.0"
     gridtolerance="10.0"
     objecttolerance="10.0"
     borderopacity="1.0"
     bordercolor="#666666"
     pagecolor="#ffffff"
     id="base"
     showgrid="false"
     showguides="true"
     inkscape:guide-bbox="true"
     inkscape:zoom="0.236"
     inkscape:cx="500"
     inkscape:cy="500"
     inkscape:window-x="0"
     inkscape:window-y="24"
     inkscape:current-layer="svg5496"
     inkscape:window-width="1280"
     inkscape:window-height="725"
     inkscape:window-maximized="1">
    <sodipodi:guide
       orientation="horizontal"
       position="200"
       id="guide5596" />
  </sodipodi:namedview>
  <defs
     id="defs5498">
    <inkscape:perspective
       sodipodi:type="inkscape:persp3d"
       inkscape:vp_x="0 : 500 : 1"
       inkscape:vp_y="0 : 1000 : 0"
       inkscape:vp_z="1000 : 500 : 1"
       inkscape:persp3d-origin="500 : 333.33333 : 1"
       id="perspective8" />
    <inkscape:perspective
       id="perspective2388"
       inkscape:persp3d-origin="372.04724 : 350.78739 : 1"
       inkscape:vp_z="744.09448 : 526.18109 : 1"
       inkscape:vp_y="0 : 1000 : 0"
       inkscape:vp_x="0 : 526.18109 : 1"
       sodipodi:type="inkscape:persp3d" />
    <inkscape:perspective
       id="perspective3718"
       inkscape:persp3d-origin="0.5 : 0.33333333 : 1"
       inkscape:vp_z="1 : 0.5 : 1"
       inkscape:vp_y="0 : 1000 : 0"
       inkscape:vp_x="0 : 0.5 : 1"
       sodipodi:type="inkscape:persp3d" />
    <inkscape:perspective
       id="perspective5161"
       inkscape:persp3d-origin="0.5 : 0.33333333 : 1"
       inkscape:vp_z="1 : 0.5 : 1"
       inkscape:vp_y="0 : 1000 : 0"
       inkscape:vp_x="0 : 0.5 : 1"
       sodipodi:type="inkscape:persp3d" />
  </defs>
  <g
     id="layer1"
     transform="translate(-103.52423,266.51982)" />
  <g
     id="g5147"
     transform="translate(-1.2243872,-0.40665644)"
     style="fill:#ff0000;stroke:#000000;stroke-opacity:1;fill-opacity:0.60784316">
    <g
       transform="translate(-103.52423,266.51982)"
       id="layer1-5"
       style="fill:#ff0000;stroke:#000000;stroke-opacity:1;fill-opacity:0.60784316" />
    <g
       style="fill:#ff0000;stroke:#000000;stroke-opacity:1;fill-opacity:0.60784316"
       transform="matrix(0.95833401,0,0,0.95833401,12.094957,39.760454)"
       id="g2868-3">
      <g
         style="fill:#ff0000;stroke:#000000;stroke-opacity:1;fill-opacity:0.60784316"
         id="layer1-6-2"
         transform="translate(-103.52423,266.51982)" />
      <path
         style="fill:#ff0000;stroke:#000000;stroke-width:1px;stroke-linecap:butt;stroke-linejoin:miter;stroke-opacity:1;fill-opacity:0.60784316"
         d="m 503,302.625 c -1.35995,3.5e-4 -2.72535,0.096 -4.09375,0.25 -32.00912,3.60282 -73.22749,57.30792 -93.625,110.65625 -21.87186,61.13614 -21.02743,130.80014 49.5625,147.03125 24.86298,5.71687 62.10321,-6.94448 92.4375,-66.65625 16.85837,8.96297 46.14865,55.51963 35.25,78.0625 -15.26285,31.56982 -89.47634,66.4401 -160.38094,74.15625 -2.60281,0.28325 -9.47224,4.00344 -10.80029,6.59166 -14.27213,19.22986 -21.61659,39.00407 -25.57471,57.68959 -1.78424,3.47727 2.32294,10.6847 7.29731,11.02916 56.49271,3.912 124.37725,10.08591 181.34078,39.29643 6.48694,3.32647 2.81655,9.69488 -2.7741,14.93541 C 531.94108,812.87939 390.95352,891.77144 244.49494,889.39227 132.00474,887.56491 52.53195,830.41811 49.25,742.34375 47.32711,690.74125 80.794561,636.43066 125.5625,570.5 c 7.99769,-11.77836 -5.38189,-33.59517 -21.41219,-15.95863 -29.178709,32.10241 -78.48049,131.82476 -93.58781,184.05238 -37.971264,131.27072 26.44093,277.50845 215.75,264.15625 137.78616,-9.7744 313.66788,-98.94308 379.40625,-171.8125 23.61027,-26.17142 32.62546,-92.04682 20.375,-110.6875 -16.27742,-24.76821 -61.01397,-43.62126 -78.75,-49.53125 32.13904,-30.81196 60.64137,-58.48839 60.96875,-170.6875 C 608.50618,433.65471 559.66449,302.61032 503,302.625 z m -47.5625,103.4375 c 13.11929,-0.50445 26.14455,9.19609 40.84375,21.15625 2.93302,2.38649 2.83647,6.47706 0.71875,8.78125 -19.98823,21.74829 -47.47006,16.6281 -66.4375,3.40625 -4.56147,-3.17972 -7.67025,-9.09044 -2.78125,-15.40625 9.65299,-12.47011 18.67989,-17.59235 27.65625,-17.9375 z"
         id="path2394-7-8"
         sodipodi:nodetypes="cscscssccssssssssssscsccssssc" />
    </g>
  </g>
</svg>

<?xml version="1.0" encoding="UTF-8" standalone="no"?>
<!-- Created with Inkscape (http://www.inkscape.org/) -->

<svg
   xmlns:dc="http://purl.org/dc/elements/1.1/"
   xmlns:cc="http://creativecommons.org/ns#"
   xmlns:rdf="http://www.w3.org/1999/02/22-rdf-syntax-ns#"
   xmlns:svg="http://www.w3.org/2000/svg"
   xmlns="http://www.w3.org/2000/svg"
   xmlns:sodipodi="http://sodipodi.sourceforge.net/DTD/sodipodi-0.dtd"
   xmlns:inkscape="http://www.inkscape.org/namespaces/inkscape"
   version="1.0"
   width="1000"
   height="1000"
   id="svg5496"
   sodipodi:version="0.32"
   inkscape:version="0.47pre0 r21549"
   sodipodi:docname="faa+yaa.isol.svg"
   inkscape:output_extension="org.inkscape.output.svg.inkscape">
  <metadata
     id="metadata5594">
    <rdf:RDF>
      <cc:Work
         rdf:about="">
        <dc:format>image/svg+xml</dc:format>
        <dc:type
           rdf:resource="http://purl.org/dc/dcmitype/StillImage" />
      </cc:Work>
    </rdf:RDF>
  </metadata>
  <sodipodi:namedview
     inkscape:pageshadow="2"
     inkscape:pageopacity="0.0"
     guidetolerance="10.0"
     gridtolerance="10.0"
     objecttolerance="10.0"
     borderopacity="1.0"
     bordercolor="#666666"
     pagecolor="#ffffff"
     id="base"
     showgrid="false"
     showguides="true"
     inkscape:guide-bbox="true"
     inkscape:zoom="0.236"
     inkscape:cx="500"
     inkscape:cy="500"
     inkscape:window-x="0"
     inkscape:window-y="25"
     inkscape:current-layer="svg5496">
    <sodipodi:guide
       orientation="horizontal"
       position="200"
       id="guide5596" />
  </sodipodi:namedview>
  <defs
     id="defs5498">
    <inkscape:perspective
       sodipodi:type="inkscape:persp3d"
       inkscape:vp_x="0 : 500 : 1"
       inkscape:vp_y="0 : 1000 : 0"
       inkscape:vp_z="1000 : 500 : 1"
       inkscape:persp3d-origin="500 : 333.33333 : 1"
       id="perspective8" />
    <inkscape:perspective
       id="perspective2388"
       inkscape:persp3d-origin="372.04724 : 350.78739 : 1"
       inkscape:vp_z="744.09448 : 526.18109 : 1"
       inkscape:vp_y="0 : 1000 : 0"
       inkscape:vp_x="0 : 526.18109 : 1"
       sodipodi:type="inkscape:persp3d" />
  </defs>
  <g
     id="layer1"
     transform="translate(-103.52423,266.51982)" />
  <path
     style="fill:#000000;fill-rule:evenodd;stroke:#000000;stroke-width:1px;stroke-linecap:butt;stroke-linejoin:miter;stroke-opacity:1"
     d="M 503 302.625 C 501.64005 302.62535 500.27465 302.72098 498.90625 302.875 C 466.89713 306.47782 425.67876 360.18292 405.28125 413.53125 C 383.40939 474.66739 384.25382 544.33139 454.84375 560.5625 C 479.70673 566.27937 516.94696 553.61802 547.28125 493.90625 C 564.13962 502.86922 597.78466 543.43809 582.53125 571.96875 C 565.99845 602.89244 498.49835 638.40885 427.59375 646.125 C 424.99094 646.40825 424.1093 646.31803 422.78125 648.90625 L 391.21875 710.40625 C 389.43451 713.88352 390.37269 716.58822 395.25 717.625 C 457.18615 730.79085 510.37339 725.53353 579.3125 760.1875 C 585.82599 763.46167 587.02815 766.07197 581.4375 771.3125 C 541.73928 808.52464 389.78867 901.75685 243.40625 896.46875 C 132.54908 892.46401 52.53195 830.41811 49.25 742.34375 C 47.32711 690.74125 80.794561 636.43066 125.5625 570.5 C 133.56019 558.72164 121.24529 544.03358 109.59375 556.71875 C 76.000771 593.29187 25.66982 686.36613 10.5625 738.59375 C -27.408764 869.86447 31.015641 1001.9492 226.3125 1002.75 C 364.44376 1003.3164 539.98038 903.80692 605.71875 830.9375 C 629.32902 804.76608 633.68672 741.22369 626.09375 720.25 C 614.17109 687.31662 562.9024 672.27398 547.34375 670.71875 C 579.48279 639.90679 607.98512 612.23036 608.3125 500.03125 C 608.50618 433.65471 559.66449 302.61032 503 302.625 z M 455.4375 406.0625 C 468.55679 405.55805 481.58205 415.25859 496.28125 427.21875 C 499.21427 429.60524 499.11772 433.69581 497 436 C 477.01177 457.74829 449.52994 452.6281 430.5625 439.40625 C 426.00103 436.22653 422.89225 430.31581 427.78125 424 C 437.43424 411.52989 446.46114 406.40765 455.4375 406.0625 z "
     id="path2394" />
</svg>
